dist/files/aboutUs_logo.svg

<svg width="46" height="46" viewBox="0 0 46 46" fill="none" xmlns="http://www.w3.org/2000/svg">
<mask id="mask0_6248_2835" style="mask-type:luminance" maskUnits="userSpaceOnUse" x="0" y="0" width="46" height="46">
<path d="M0 0H46V46H0V0Z" fill="white"/>
</mask>
<g mask="url(#mask0_6248_2835)">
<path d="M23 46C10.3183 46 0 35.6817 0 23C0 10.3183 10.3183 0 23 0C35.6817 0 46 10.3183 46 23C46 35.6817 35.6817 46 23 46ZM23 3.335C12.1541 3.335 3.33201 12.1541 3.33201 23C3.33201 33.8429 12.1541 42.665 23 42.665C33.8429 42.665 42.668 33.8429 42.668 23C42.668 12.1541 33.8429 3.335 23 3.335Z" fill="#000066"/>
</g>
<path d="M23.4743 34.9364C23.2976 34.8687 23.1066 34.7597 23.1066 34.2967C23.1066 34.1057 23.1365 33.8841 23.2042 33.6139L26.1091 19.5306C26.1738 19.2 26.2068 18.8538 26.2068 18.5088C26.2068 17.599 25.9265 16.906 25.373 16.4472C24.1326 15.4284 21.962 15.6278 18.3508 16.8485L18.0004 16.9665L17.8567 18.7831H18.4634C20.3016 18.7831 20.7461 18.9269 20.8377 18.9718C20.9617 19.0305 21.0294 19.1012 21.0294 19.3078C21.0294 19.4228 21.015 19.5522 20.9845 19.6959C20.9485 19.8876 20.9054 20.1086 20.8641 20.3476L18.2017 33.2821C18.0777 33.9332 18.013 34.4926 18.013 34.9382C18.013 35.9684 18.3107 36.765 18.8917 37.3029C19.4607 37.8276 20.2411 38.0947 21.2103 38.0947C22.3447 38.0947 23.8666 37.7797 25.8618 37.1346L26.2187 37.0196L26.3625 35.1778H25.7599C24.3955 35.1778 23.766 35.046 23.4743 34.9364Z" fill="#000066"/>
<path d="M25.5126 8.69568C24.9652 8.17339 24.2608 7.90625 23.421 7.90625C22.5514 7.90625 21.8152 8.19255 21.236 8.75438C20.6527 9.31919 20.355 10.0799 20.355 11.0172C20.355 11.8797 20.6383 12.5955 21.1941 13.1501C21.7506 13.7096 22.4639 13.9929 23.309 13.9929C24.1715 13.9929 24.9005 13.6922 25.4827 13.1058C26.0601 12.5194 26.3524 11.7576 26.3524 10.8399C26.3524 9.94451 26.072 9.22276 25.5126 8.69568Z" fill="#000066"/>
</svg>

<svg xmlns="http://www.w3.org/2000/svg" width="46" height="46" fill="none"><mask id="a" width="46" height="46" x="0" y="0" maskUnits="userSpaceOnUse" style="mask-type:luminance"><path fill="#fff" d="M0 0h46v46H0V0Z"/></mask><g mask="url(#a)"><path fill="#006" d="M23 46C10.318 46 0 35.682 0 23S10.318 0 23 0s23 10.318 23 23-10.318 23-23 23Zm0-42.665C12.154 3.335 3.332 12.155 3.332 23c0 10.843 8.822 19.665 19.668 19.665 10.843 0 19.668-8.822 19.668-19.665 0-10.846-8.825-19.665-19.668-19.665Z"/></g><path fill="#006" d="M23.474 34.936c-.176-.067-.367-.176-.367-.64 0-.19.03-.412.097-.682L26.11 19.53c.065-.331.098-.677.098-1.022 0-.91-.28-1.603-.834-2.062-1.24-1.019-3.411-.82-7.022.402l-.35.117-.144 1.817h.606c1.839 0 2.283.144 2.375.189.124.058.191.13.191.336 0 .115-.014.244-.044.388-.037.192-.08.413-.12.652l-2.663 12.934c-.124.651-.189 1.21-.189 1.656 0 1.03.298 1.827.879 2.365.569.525 1.35.792 2.318.792 1.135 0 2.657-.315 4.652-.96l.357-.115.143-1.842h-.602c-1.365 0-1.994-.132-2.286-.242ZM25.513 8.696c-.548-.523-1.252-.79-2.092-.79-.87 0-1.606.287-2.185.848-.583.565-.881 1.326-.881 2.263 0 .863.283 1.579.84 2.133.556.56 1.269.843 2.114.843.863 0 1.591-.3 2.174-.887.577-.587.87-1.348.87-2.266 0-.895-.281-1.617-.84-2.144Z"/></svg>
